icons/caret-double-top.svg

<svg width="24" height="25" viewBox="0 0 24 25" fill="none" xmlns="http://www.w3.org/2000/svg">
<path fill-rule="evenodd" clip-rule="evenodd" d="M11.9894 13.6625C12.3084 13.6625 12.5379 13.8254 12.6697 13.9571L16.5144 17.8019C16.6645 17.912 16.7833 18.0664 16.8462 18.255C16.9247 18.4905 16.899 18.7272 16.8162 18.9204C16.6453 19.3192 16.2487 19.5375 15.8394 19.5375H8.13935C7.82087 19.5375 7.47142 19.3877 7.26531 19.0785C7.15242 18.9092 7.08141 18.6848 7.11468 18.4352C7.14744 18.1895 7.2708 17.9954 7.40902 17.8571L11.309 13.9571C11.4408 13.8254 11.6703 13.6625 11.9894 13.6625ZM11.9894 15.3981L9.35001 18.0375H14.6287L11.9894 15.3981Z" fill="black"/>
<path fill-rule="evenodd" clip-rule="evenodd" d="M11.9519 5.46252C12.1811 5.46252 12.4578 5.54533 12.6697 5.75719L16.5144 9.60193C16.6646 9.71204 16.7833 9.86647 16.8462 10.055C16.9247 10.2905 16.899 10.5273 16.8162 10.7205C16.6453 11.1192 16.2488 11.3375 15.8394 11.3375H8.13938C7.62133 11.3375 7.33845 10.956 7.23752 10.7205C7.18067 10.5878 7.14467 10.4309 7.15083 10.2645C7.15668 10.1065 7.20599 9.86025 7.40905 9.65719L11.2178 5.84847C11.288 5.73977 11.3806 5.65316 11.4791 5.59253C11.6565 5.48338 11.8359 5.46252 11.9519 5.46252ZM11.9894 7.19818L9.35004 9.83752H14.6287L11.9894 7.19818Z" fill="black"/>
</svg>

<svg xmlns="http://www.w3.org/2000/svg" fill="none" viewBox="0 0 24 25">
  <path fill="#000" fill-rule="evenodd" d="M11.99 13.662c.318 0 .548.163.68.295l3.844 3.845a.922.922 0 0 1 .302 1.118c-.17.4-.567.617-.977.617h-7.7c-.318 0-.668-.15-.874-.459a.934.934 0 0 1-.15-.643c.032-.245.156-.44.294-.578l3.9-3.9a.962.962 0 0 1 .68-.295Zm0 1.736-2.64 2.64h5.279l-2.64-2.64Zm-.038-9.935c.23 0 .506.082.718.294l3.844 3.845a.922.922 0 0 1 .302 1.118c-.17.4-.567.617-.977.617h-7.7c-.518 0-.8-.381-.901-.617a1.065 1.065 0 0 1-.087-.456.902.902 0 0 1 .258-.607l3.809-3.809a.833.833 0 0 1 .261-.255.902.902 0 0 1 .473-.13Zm.037 1.735L9.35 9.838h5.279l-2.64-2.64Z" clip-rule="evenodd"/>
</svg>
